static/images/clients/svg/izettle.svg

<svg fill="none" height="24" viewBox="0 0 89 24" width="89" xmlns="http://www.w3.org/2000/svg"><g fill="#282828"><path d="m19.668 4.73291-11.77127 15.04419h5.26877l11.5577-15.04419z"/><path d="m60.3384 2.81488h-4.0532v4.43652h-5.5393v-4.43652h-4.0572v4.43652h-3.7529v3.5344h3.7529v12.8258h4.0572v-12.8258h5.5393v12.8258h4.0532v-12.8258h3.7522v-3.5344h-3.7522zm-22.9067 10.76052h-6.973c.1296-1.8835 1.7128-3.334 3.5998-3.2994 1.9959 0 3.2685 1.4688 3.3906 3.2994zm4.114 7.5173-2.4798-2.4577c-1.1167 1.1941-2.6627 1.8952-4.297 1.9481-2.3479.0882-4.3431-1.7006-4.5106-4.0442h11.6493c.5142-5.8706-3.1772-9.675-7.9276-9.675-4.8722 0-8.0494 3.9526-8.0494 8.6291 0 5.1204 3.8135 8.507 8.6552 8.507 2.7238 0 5.3865-1.0762 6.973-2.9071h-.0131zm28.3846 2.5191v-23.102216h-4.053v23.098316zm-65.08859 0v-15.76323h-4.053005v15.76323zm19.88179 0v-3.8351h-16.82671v3.8351zm0-18.87935v-3.830946h-16.52171v3.835376zm-24.7235-1.91757c.00022117 1.55485 1.26091 2.81532 2.81576 2.8151 1.55441-.00022 2.81466-1.26047 2.81488-2.8151-.00022-1.55463-1.26091-2.81510115-2.81576-2.81487997-1.55463.00044235-2.81488 1.26046997-2.81488 2.81487997zm83.9414 10.76052h-6.9729c.1318-1.8839 1.7163-3.3342 3.604-3.2994 1.9961 0 3.2687 1.4688 3.3866 3.2994zm4.118 7.5173-2.4835-2.4577c-1.1154 1.1965-2.6623 1.8977-4.2974 1.9481-2.346.086-4.3388-1.7024-4.506-4.0442h11.6492c.514-5.8706-3.1771-9.675-7.9277-9.675-4.8723 0-8.0494 3.9526-8.0494 8.6291 0 5.1204 3.8216 8.507 8.6552 8.507 2.7235 0 5.3864-1.0762 6.9729-2.9071h-.0133z"/></g></svg>

<svg width="89" height="24" viewBox="0 0 89 24" fill="none" xmlns="http://www.w3.org/2000/svg">
<path d="M19.668 4.73291L7.89673 19.7771H13.1655L24.7232 4.73291H19.668Z" fill="#282828"/>
<path d="M60.3384 2.81488H56.2852V7.2514H50.7459V2.81488H46.6887V7.2514H42.9358V10.7858H46.6887V23.6116H50.7459V10.7858H56.2852V23.6116H60.3384V10.7858H64.0906V7.2514H60.3384V2.81488ZM37.4317 13.5754H30.4587C30.5883 11.6919 32.1715 10.2414 34.0585 10.276C36.0544 10.276 37.327 11.7448 37.4491 13.5754H37.4317ZM41.5457 21.0927L39.0659 18.635C37.9492 19.8291 36.4032 20.5302 34.7689 20.5831C32.421 20.6713 30.4258 18.8825 30.2583 16.5389H41.9076C42.4218 10.6683 38.7304 6.8639 33.98 6.8639C29.1078 6.8639 25.9306 10.8165 25.9306 15.493C25.9306 20.6134 29.7441 24 34.5858 24C37.3096 24 39.9723 22.9238 41.5588 21.0929H41.5457V21.0927ZM69.9303 23.6118V0.509584H65.8773V23.6079L69.9303 23.6118ZM4.84171 23.6118V7.84857H0.788705V23.6118H4.84171ZM24.7235 23.6118V19.7767H7.89679V23.6118H24.7235ZM24.7235 4.73245V0.901504H8.20179V4.73688L24.7235 4.73245ZM0 2.81488C0.000221174 4.36973 1.26091 5.6302 2.81576 5.62998C4.37017 5.62976 5.63042 4.36951 5.63064 2.81488C5.63042 1.26025 4.36973 -0.000221145 2.81488 2.91025e-08C1.26025 0.000442377 0 1.26047 0 2.81488ZM83.9414 13.5754H76.9685C77.1003 11.6915 78.6848 10.2412 80.5725 10.276C82.5686 10.276 83.8412 11.7448 83.9591 13.5754H83.9414ZM88.0594 21.0927L85.5759 18.635C84.4605 19.8315 82.9136 20.5327 81.2785 20.5831C78.9325 20.6691 76.9397 18.8807 76.7725 16.5389H88.4217C88.9357 10.6683 85.2446 6.8639 80.494 6.8639C75.6217 6.8639 72.4446 10.8165 72.4446 15.493C72.4446 20.6134 76.2662 24 81.0998 24C83.8233 24 86.4862 22.9238 88.0727 21.0929H88.0594V21.0927Z" fill="#282828"/>
</svg>
